packages/symbols/svgs/outline/trash-can-outline.svg

<svg width="24" height="24" viewBox="0 0 24 24" fill="none" xmlns="http://www.w3.org/2000/svg">
<path fill-rule="evenodd" clip-rule="evenodd" d="M8 0C7.44772 0 7 0.447715 7 1V4H1C0.447715 4 0 4.44772 0 5C0 5.55228 0.447715 6 1 6H8H16H23C23.5523 6 24 5.55228 24 5C24 4.44772 23.5523 4 23 4H17V1C17 0.447715 16.5523 0 16 0L8 0ZM15 4V2H9V4H15ZM5 9C5 8.44771 4.55228 8 4 8C3.44772 8 3 8.44771 3 9V21C3 21.7957 3.31607 22.5587 3.87868 23.1213C4.44129 23.6839 5.20435 24 6 24H18C18.7957 24 19.5587 23.6839 20.1213 23.1213C20.6839 22.5587 21 21.7957 21 21V9C21 8.44771 20.5523 8 20 8C19.4477 8 19 8.44771 19 9V21C19 21.2652 18.8946 21.5196 18.7071 21.7071C18.5196 21.8946 18.2652 22 18 22H6C5.73478 22 5.48043 21.8946 5.29289 21.7071C5.10536 21.5196 5 21.2652 5 21V9ZM12 11C12.5523 11 13 11.4477 13 12V18C13 18.5523 12.5523 19 12 19C11.4477 19 11 18.5523 11 18V12C11 11.4477 11.4477 11 12 11ZM9 12C9 11.4477 8.55229 11 8 11C7.44772 11 7 11.4477 7 12V18C7 18.5523 7.44772 19 8 19C8.55229 19 9 18.5523 9 18V12ZM16 11C16.5523 11 17 11.4477 17 12V18C17 18.5523 16.5523 19 16 19C15.4477 19 15 18.5523 15 18V12C15 11.4477 15.4477 11 16 11Z" fill="black"/>
</svg>

<svg width="24" height="24" viewBox="0 0 24 24" xmlns="http://www.w3.org/2000/svg"><path fill-rule="evenodd" clip-rule="evenodd" d="M8 0a1 1 0 0 0-1 1v3H1a1 1 0 0 0 0 2h22a1 1 0 1 0 0-2h-6V1a1 1 0 0 0-1-1H8Zm7 4V2H9v2h6ZM5 9a1 1 0 1 0-2 0v12a3 3 0 0 0 3 3h12a3 3 0 0 0 3-3V9a1 1 0 1 0-2 0v12a1 1 0 0 1-1 1H6a1 1 0 0 1-1-1V9Zm7 2a1 1 0 0 1 1 1v6a1 1 0 1 1-2 0v-6a1 1 0 0 1 1-1Zm-3 1a1 1 0 1 0-2 0v6a1 1 0 1 0 2 0v-6Zm7-1a1 1 0 0 1 1 1v6a1 1 0 1 1-2 0v-6a1 1 0 0 1 1-1Z"/></svg>
